svgs/1F9B1.svg

<svg xmlns="http://www.w3.org/2000/svg" xmlns:xlink="http://www.w3.org/1999/xlink" preserveAspectRatio="none" viewBox="0 0 72 72"><defs><path id="b" fill="#FFA000" d="M64.85 22.55l-.6-.5q.7-1.1.7-2.55 0-2.05-1.4-3.5-1.2-1.15-2.85-1.35.1-.4.1-.85 0-2.05-1.4-3.5-1.45-1.4-3.5-1.4-.7 0-1.3.2-.35-1.15-1.2-2.05-1.45-1.4-3.5-1.4-1.2 0-2.2.5-.25-.5-.7-.95-1.45-1.4-3.5-1.4-2 0-3.45 1.4-.15.15-.3.35-.15-.2-.3-.35Q38 3.8 36 3.8q-2.018.017-3.45 1.4-.15.15-.3.35-.15-.2-.3-.35-1.45-1.4-3.45-1.4-2.05 0-3.5 1.4-.45.45-.7.95-1-.5-2.2-.5-2.05 0-3.5 1.4-.85.9-1.2 2.05-.6-.2-1.3-.2-2.05 0-3.5 1.4-1.4 1.45-1.4 3.5 0 .45.1.85-1.65.2-2.85 1.35-1.4 1.45-1.4 3.5 0 1.45.7 2.55l-.6.5q-1.4 1.45-1.4 3.5 0 1.85 1.15 3.2-.1.05-.15.1-1.4 1.45-1.4 3.5t1.4 3.45q.45.45.95.75 4.117 2.73 4.2 7.65 2.75-.95 3.5-1.7 1.45-1.4 1.45-3.45 0-.55-.1-1.05.95-.35 1.75-1.15 1.45-1.4 1.45-3.45v-.2q1.3-.3 2.35-1.35.7-.65 1.05-1.45.4.05.85.05 2 0 3.45-1.45 1.45 1.45 3.5 1.45 1.35 0 2.45-.65 1.05.65 2.4.65 1.35 0 2.4-.65 1.1.65 2.45.65 2.05 0 3.5-1.45 1.45 1.45 3.45 1.45.45 0 .85-.05.35.8 1.05 1.45 1.05 1.05 2.35 1.35v.2q0 2.05 1.45 3.45.8.8 1.75 1.15-.1.5-.1 1.05 0 2.05 1.45 3.45.75.75 3.5 1.7.1-4.9 4.2-7.65.5-.3.95-.75 1.4-1.4 1.4-3.45 0-2.05-1.4-3.5-.05-.05-.15-.1 1.15-1.35 1.15-3.2 0-2.05-1.4-3.5z"/><path id="a" fill="none" stroke="#2F2F2F" stroke-linecap="round" stroke-linejoin="round" stroke-width="3" d="M3.5 3.5h65v65h-65v-65z"/></defs><use xlink:href="#a"/><use transform="translate(0 11.75)" xlink:href="#b"/></svg>

<svg xmlns="http://www.w3.org/2000/svg" version="1.1" xmlns:xlink="http://www.w3.org/1999/xlink" preserveAspectRatio="none" x="0px" y="0px" width="72px" height="72px" viewBox="0 0 72 72">
<defs>
<g id="Layer0_1_MEMBER_0_FILL">
<path fill="#FFA000" stroke="none" d="
M 64.85 22.55
Q 64.55 22.3 64.25 22.05 64.95 20.95 64.95 19.5 64.95 17.45 63.55 16 62.35 14.85 60.7 14.65 60.8 14.25 60.8 13.8 60.8 11.75 59.4 10.3 57.95 8.9 55.9 8.9 55.2 8.9 54.6 9.1 54.25 7.95 53.4 7.05 51.95 5.65 49.9 5.65 48.7 5.65 47.7 6.15 47.45 5.65 47 5.2 45.55 3.8 43.5 3.8 41.5 3.8 40.05 5.2 39.9 5.35 39.75 5.55 39.6 5.35 39.45 5.2 38 3.8 36 3.8 33.9822265625 3.8171875 32.55 5.2 32.4 5.35 32.25 5.55 32.1 5.35 31.95 5.2 30.5 3.8 28.5 3.8 26.45 3.8 25 5.2 24.55 5.65 24.3 6.15 23.3 5.65 22.1 5.65 20.05 5.65 18.6 7.05 17.75 7.95 17.4 9.1 16.8 8.9 16.1 8.9 14.05 8.9 12.6 10.3 11.2 11.75 11.2 13.8 11.2 14.25 11.3 14.65 9.65 14.85 8.45 16 7.05 17.45 7.05 19.5 7.05 20.95 7.75 22.05 7.45 22.3 7.15 22.55 5.75 24 5.75 26.05 5.75 27.9 6.9 29.25 6.8 29.3 6.75 29.35 5.35 30.8 5.35 32.85 5.35 34.9 6.75 36.3 7.2 36.75 7.7 37.05 11.8169921875 39.7806640625 11.9 44.7 14.65078125 43.74921875 15.4 43 16.85 41.6 16.85 39.55 16.85 39 16.75 38.5 17.7 38.15 18.5 37.35 19.95 35.95 19.95 33.9 19.95 33.8 19.95 33.7 21.25 33.4 22.3 32.35 23 31.7 23.35 30.9 23.75 30.95 24.2 30.95 26.2 30.95 27.65 29.5 29.1 30.95 31.15 30.95 32.5 30.95 33.6 30.3 34.65 30.95 36 30.95 37.35 30.95 38.4 30.3 39.5 30.95 40.85 30.95 42.9 30.95 44.35 29.5 45.8 30.95 47.8 30.95 48.25 30.95 48.65 30.9 49 31.7 49.7 32.35 50.75 33.4 52.05 33.7 52.05 33.8 52.05 33.9 52.05 35.95 53.5 37.35 54.3 38.15 55.25 38.5 55.15 39 55.15 39.55 55.15 41.6 56.6 43 57.35 43.75 60.1 44.7 60.2 39.8 64.3 37.05 64.8 36.75 65.25 36.3 66.65 34.9 66.65 32.85 66.65 30.8 65.25 29.35 65.2 29.3 65.1 29.25 66.25 27.9 66.25 26.05 66.25 24 64.85 22.55 Z"/>
</g>

<path id="Layer0_0_1_STROKES" stroke="#2F2F2F" stroke-width="3" stroke-linejoin="round" stroke-linecap="round" fill="none" d="
M 3.5 3.5
L 68.5 3.5 68.5 68.5 3.5 68.5 3.5 3.5 Z"/>
</defs>

<g id="Camada_1">
<g transform="matrix( 1, 0, 0, 1, 0,0) ">
<use xlink:href="#Layer0_0_1_STROKES"/>
</g>

<g transform="matrix( 1, 0, 0, 1, 0,11.75) ">
<use xlink:href="#Layer0_1_MEMBER_0_FILL"/>
</g>
</g>
</svg>
